Adwaita++/apps/16/preferences-desktop-locale.svg

<svg height="16" width="16" xmlns="http://www.w3.org/2000/svg">
  <g fill="#474747" fill-rule="evenodd">
    <path d="m2 1v14h2v-14z"/>
    <path d="m3 1a1 1 0 0 0 -1 1v6a1 1 0 0 0 1 1h3.383l.722 1.447a1 1 0 0 0 .895.553h5a1 1 0 0 0 1-1v-6a1 1 0 0 0 -1-1h-3.383l-.722-1.447a1 1 0 0 0 -.895-.553zm1 2h3.383l.722 1.447a1 1 0 0 0 .895.553h3v4h-3.383l-.722-1.447a1 1 0 0 0 -.895-.553h-3z"/>
    <path d="m3 8h4l1 2h5v-6h-4l-1-2h-5z"/>
  </g>
</svg>

<svg xmlns="http://www.w3.org/2000/svg" width="16" height="16">
    <g fill="#2e3436" fill-rule="evenodd">
        <path d="M2 1v14h2V1z" style="line-height:normal;font-variant-ligatures:normal;font-variant-position:normal;font-variant-caps:normal;font-variant-numeric:normal;font-variant-alternates:normal;font-feature-settings:normal;text-indent:0;text-align:start;text-decoration-line:none;text-decoration-style:solid;text-decoration-color:#000;text-transform:none;text-orientation:mixed;shape-padding:0;isolation:auto;mix-blend-mode:normal" color="#000" font-weight="400" font-family="sans-serif" white-space="normal" overflow="visible"/>
        <path d="M3 1a1 1 0 0 0-1 1v6a1 1 0 0 0 1 1h3.383l.722 1.447A1 1 0 0 0 8 11h5a1 1 0 0 0 1-1V4a1 1 0 0 0-1-1H9.617l-.722-1.447A1 1 0 0 0 8 1zm1 2h3.383l.722 1.447A1 1 0 0 0 9 5h3v4H8.617l-.722-1.447A1 1 0 0 0 7 7H4z" style="line-height:normal;font-variant-ligatures:normal;font-variant-position:normal;font-variant-caps:normal;font-variant-numeric:normal;font-variant-alternates:normal;font-feature-settings:normal;text-indent:0;text-align:start;text-decoration-line:none;text-decoration-style:solid;text-decoration-color:#000;text-transform:none;text-orientation:mixed;shape-padding:0;isolation:auto;mix-blend-mode:normal" color="#000" font-weight="400" font-family="sans-serif" white-space="normal" overflow="visible"/>
        <path d="M3 8h4l1 2h5V4H9L8 2H3z"/>
    </g>
</svg>
